X:0985
T:A North Highland Reel.
M:6/8
L:1/8
Q:3/8=112
I: :: :|
Z:Jack Campin * www.campin.me.uk * 2009
K:A Mixolydian
e|cce a3 |f2e fed|ccc ege|aBB B2e|ccc a3 |f2e fed|cce BBe|cAA A2:|
e|cce ecA|ddf f2e|c2e ecA|dBB B2e|cce ecA|ddf fed|cde Bcd|cAA A2:|
<end>
<start>
